public/static/icons/navbar/ic_language.svg

<svg height="24" viewBox="0 0 24 24" width="24" xmlns="http://www.w3.org/2000/svg"><g transform="translate(1 1)"><path d="m20.2258065 7.80645161c.9793737.00117314 1.7730204.79481985 1.7741935 1.77419355v7.80645164c-.0011731.9793737-.7948198 1.7730204-1.7741935 1.7741935h-.3548388v1.5375162c-.0002405.1305391-.072136.2504049-.1871862.3120813-.1150501.0616763-.2546741.0552024-.3635234-.0168555l-2.7492904-1.832742h-4.8612903c-.9793737-.0011731-1.77302039-.7948198-1.77419353-1.7741935v-7.80645164c.00117314-.9793737.79481983-1.77302041 1.77419353-1.77419355zm-3.5718065 2.81990319h-1.3792581l-1.8774516 5.3413871h1.2153226l.3857097-1.2660645h1.9388387l.3860645 1.2660645h1.2149677zm-.684129.8260646c.0184516.0870537.0502688.2058064.0954516.356258s.246258.7994516.6032258 1.947h-1.3867097c.3782581-1.2249032.6076022-1.9926559.6880323-2.303258z"/><path d="m10.2903226 0c.9793737.00117314 1.7730204.79481985 1.7741935 1.77419355v5.32258064h-.3548387c-1.3710746.00175942-2.48211153 1.11279635-2.48387095 2.48387097v1.77419354h-3.79677419l-2.74822581 1.8327419c-.10888533.072647-.24892238.0794491-.36433598.0176973-.1154136-.0617519-.1874578-.1820277-.18743821-.3129231v-1.5375161h-.35483871c-.9793737-.0011731-1.77302041-.7948198-1.77419355-1.77419354v-7.80645161c.00117314-.9793737.79481985-1.77302041 1.77419355-1.77419355zm-3.89329034 2.78796774h-1.10496774c.02625869.14338129.03897061.28891492.03796774.43467742v.40877419h-1.52048387c-.29232889.00358878-.58459154-.01134435-.87503226-.04470967v.99c.25548387-.02519355.54290322-.03796774.84948387-.03796774h.12774194c.11712709.41407675.28230399.81302599.49216129 1.18870967.22252407.40355617.49284737.77883973.80512903 1.11774194-.71872575.47481691-1.52430559.80271685-2.37032258.96480645.23070892.28753805.41201847.61142501.53651613.95841935.92574717-.25093844 1.79522126-.675921 2.56193548-1.2522258.74275467.57150368 1.58876443.99438808 2.49167742 1.24548387.1279533-.36583217.31783606-.706949.56135484-1.00845161-.82955884-.13128997-1.62080106-.44083807-2.31922581-.90732258.28747792-.31969327.53419946-.67380424.73451613-1.05422581.2078437-.39544839.36292944-.81644654.46129032-1.25222581h.14690323c.28161354-.00170991.56313068.0109625.84345161.03796774v-.99070967c-.29269832.03335537-.58720317.04828801-.88177419.04470967h-1.61629032v-.41516129c-.00103421-.14364768.01167965-.28706474.03796774-.42829032zm.40274193 1.75041936c-.08047807.34033057-.20954451.66729888-.3832258.97083871-.13790452.25678583-.30754665.49521468-.50493549.70967742-.20629731-.21665197-.38648413-.45674228-.53687096-.71535484-.18558391-.30078891-.32953959-.6253457-.42793549-.96480645z" opacity=".48"/></g></svg>

<svg xmlns="http://www.w3.org/2000/svg" width="24" height="24" viewBox="0 0 24 24">
  <g transform="translate(1 1)">
    <path d="M20.2258065,7.80645161 C21.2051802,7.80762475 21.9988269,8.60127146 22,9.58064516 L22,9.58064516 L22,17.3870968 C21.9988269,18.3664705 21.2051802,19.1601172 20.2258065,19.1612903 L20.2258065,19.1612903 L19.8709677,19.1612903 L19.8709677,20.6988065 C19.8707272,20.8293456 19.7988317,20.9492114 19.6837815,21.0108878 C19.5687314,21.0725641 19.4291074,21.0660902 19.3202581,20.9940323 L19.3202581,20.9940323 L16.5709677,19.1612903 L11.7096774,19.1612903 C10.7303037,19.1601172 9.93665701,18.3664705 9.93548387,17.3870968 L9.93548387,17.3870968 L9.93548387,9.58064516 C9.93665701,8.60127146 10.7303037,7.80762475 11.7096774,7.80645161 L11.7096774,7.80645161 Z M16.654,10.6263548 L15.2747419,10.6263548 L13.3972903,15.9677419 L14.6126129,15.9677419 L14.9983226,14.7016774 L16.9371613,14.7016774 L17.3232258,15.9677419 L18.5381935,15.9677419 L16.654,10.6263548 Z M15.969871,11.4524194 C15.9883226,11.5394731 16.0201398,11.6582258 16.0653226,11.8086774 C16.1105054,11.959129 16.3115806,12.608129 16.6685484,13.7556774 L16.6685484,13.7556774 L15.2818387,13.7556774 C15.6600968,12.5307742 15.8894409,11.7630215 15.969871,11.4524194 Z"/>
    <path d="M10.2903226,-3.19744231e-14 C11.2696963,0.00117313805 12.063343,0.79481985 12.0645161,1.77419355 L12.0645161,1.77419355 L12.0645161,7.09677419 L11.7096774,7.09677419 C10.3386028,7.09853361 9.22756587,8.20957054 9.22580645,9.58064516 L9.22580645,9.58064516 L9.22580645,11.3548387 L5.42903226,11.3548387 L2.68080645,13.1875806 C2.57192112,13.2602276 2.43188407,13.2670297 2.31647047,13.2052779 C2.20105687,13.143526 2.12901267,13.0232502 2.12903226,12.8923548 L2.12903226,12.8923548 L2.12903226,11.3548387 L1.77419355,11.3548387 C0.79481985,11.3536656 0.00117313805,10.5600189 -5.68434189e-14,9.58064516 L-5.68434189e-14,9.58064516 L-5.68434189e-14,1.77419355 C0.00117313805,0.79481985 0.79481985,0.00117313805 1.77419355,-3.19744231e-14 L1.77419355,-3.19744231e-14 Z M6.39703226,2.78796774 L5.29206452,2.78796774 C5.31832321,2.93134903 5.33103513,3.07688266 5.33003226,3.22264516 L5.33003226,3.22264516 L5.33003226,3.63141935 L3.80954839,3.63141935 C3.5172195,3.63500813 3.22495685,3.620075 2.93451613,3.58670968 L2.93451613,3.58670968 L2.93451613,4.57670968 C3.19,4.55151613 3.47741935,4.53874194 3.784,4.53874194 L3.784,4.53874194 L3.91174194,4.53874194 C4.02886903,4.95281869 4.19404593,5.35176793 4.40390323,5.72745161 C4.6264273,6.13100778 4.8967506,6.50629134 5.20903226,6.84519355 C4.49030651,7.32001046 3.68472667,7.6479104 2.83870968,7.81 C3.0694186,8.09753805 3.25072815,8.42142501 3.37522581,8.76841935 C4.30097298,8.51748091 5.17044707,8.09249835 5.93716129,7.51619355 C6.67991596,8.08769723 7.52592572,8.51058163 8.42883871,8.76167742 C8.55679201,8.39584525 8.74667477,8.05472842 8.99019355,7.75322581 C8.16063471,7.62193584 7.36939249,7.31238774 6.67096774,6.84590323 C6.95844566,6.52620996 7.2051672,6.17209899 7.40548387,5.79167742 C7.61332757,5.39622903 7.76841331,4.97523088 7.86677419,4.53945161 L7.86677419,4.53945161 L8.01367742,4.53945161 C8.29529096,4.5377417 8.5768081,4.55041411 8.85712903,4.57741935 L8.85712903,4.57741935 L8.85712903,3.58670968 C8.56443071,3.62006505 8.26992586,3.63499769 7.97535484,3.63141935 L7.97535484,3.63141935 L6.35906452,3.63141935 L6.35906452,3.21625806 C6.35803031,3.07261038 6.37074417,2.92919332 6.39703226,2.78796774 L6.39703226,2.78796774 Z M6.79977419,4.5383871 C6.71929612,4.87871767 6.59022968,5.20568598 6.41654839,5.50922581 C6.27864387,5.76601164 6.10900174,6.00444049 5.9116129,6.21890323 C5.70531559,6.00225126 5.52512877,5.76216095 5.37474194,5.50354839 C5.18915803,5.20275948 5.04520235,4.87820269 4.94680645,4.53874194 L4.94680645,4.53874194 Z" opacity=".48"/>
  </g>
</svg>
